exports/ozone-depleting-substance-emissions_v1_850x600.svg

<svg xmlns="http://www.w3.org/2000/svg" version="1.1" style="background-color:#fff;-webkit-font-smoothing:antialiased" width="850" height="600" font-family="'Helvetica Neue',Helvetica,Arial,sans-serif" font-size="18" text-rendering="optimizeLegibility"><g class="ChartTab"><g class="HeaderView"><g opacity=".8" transform="matrix(.27 0 0 .27 778 15)"><a xmlns:xlink="http://www.w3.org/1999/xlink" xlink:href="https://ourworldindata.org" target="_blank"><g><path fill="#1B2543" d="M0 0h211.2v130.1H0z"/><path fill="#E63912" d="M0 112.2h211.2v17.9H0z"/><g><path fill="none" d="M1.2 12.3h210.2v99.2H1.2z"/><path fill="#FFF" d="M37.8 32.2c0 12.7-7.7 19.4-17.1 19.4-9.7 0-16.6-7.5-16.6-18.7 0-11.7 7.3-19.3 17.1-19.3 10.1.1 16.6 7.7 16.6 18.6zm-28.6.6c0 7.9 4.3 14.9 11.8 14.9 7.5 0 11.8-6.9 11.8-15.3 0-7.3-3.8-14.9-11.8-14.9-7.9 0-11.8 7.3-11.8 15.3zM62.7 43.8c0 2.7.1 5.1.2 7.2h-4.3l-.3-4.3h-.1c-1.3 2.1-4 4.9-8.8 4.9-4.2 0-9.1-2.3-9.1-11.6V24.6h4.8v14.6c0 5 1.5 8.4 5.9 8.4 3.2 0 5.5-2.2 6.3-4.4.3-.7.4-1.6.4-2.5V24.6h4.8v19.2zM67.3 32.8c0-3.1-.1-5.8-.2-8.2h4.2l.2 5.2h.2c1.2-3.5 4.1-5.8 7.3-5.8.5 0 .9.1 1.4.2v4.5c-.5-.1-1-.2-1.6-.2-3.4 0-5.8 2.6-6.5 6.2-.1.7-.2 1.4-.2 2.2V51h-4.8V32.8zM95.4 51L86 14.2h5l4.4 18.6c1.1 4.6 2.1 9.2 2.7 12.7h.1c.6-3.7 1.8-8 3-12.8l4.9-18.5h5l4.5 18.7c1 4.4 2 8.7 2.6 12.6h.1c.8-4 1.8-8.1 3-12.7l4.9-18.5h4.9L120.6 51h-5L111 31.9c-1.1-4.7-1.9-8.3-2.4-12h-.1c-.7 3.7-1.5 7.3-2.8 12L100.4 51h-5zM154.9 37.6c0 9.8-6.8 14-13.2 14-7.2 0-12.7-5.2-12.7-13.6 0-8.8 5.8-14 13.1-14 7.7 0 12.8 5.5 12.8 13.6zm-21 .3c0 5.8 3.3 10.1 8 10.1 4.6 0 8-4.3 8-10.3 0-4.5-2.2-10.1-7.9-10.1s-8.1 5.2-8.1 10.3zM158.2 32.8c0-3.1-.1-5.8-.2-8.2h4.2l.2 5.2h.2c1.2-3.5 4.1-5.8 7.3-5.8.5 0 .9.1 1.4.2v4.5c-.5-.1-1-.2-1.6-.2-3.4 0-5.8 2.6-6.5 6.2-.1.7-.2 1.4-.2 2.2V51h-4.8V32.8zM173.5 12.3h4.8V51h-4.8V12.3zM206.5 12.3v31.9c0 2.3.1 5 .2 6.8h-4.3l-.2-4.6h-.2c-1.5 2.9-4.7 5.2-9 5.2-6.4 0-11.3-5.4-11.3-13.4-.1-8.8 5.4-14.2 11.9-14.2 4 0 6.8 1.9 8 4h.1V12.3h4.8zm-4.8 23.1c0-.6-.1-1.4-.2-2a7 7 0 00-6.9-5.6c-5 0-7.9 4.4-7.9 10.2 0 5.3 2.6 9.8 7.8 9.8 3.2 0 6.2-2.1 7.1-5.7.2-.7.2-1.3.2-2.1v-4.6zM42.8 64c.1 1.6-1.1 2.9-3.1 2.9-1.7 0-2.9-1.3-2.9-2.9 0-1.7 1.3-3 3-3 1.9 0 3 1.3 3 3zm-5.4 33.8V71.4h4.8v26.4h-4.8zM47.5 78.6c0-2.7-.1-5-.2-7.1h4.3l.3 4.4h.1c1.3-2.5 4.4-5 8.8-5 3.7 0 9.4 2.2 9.4 11.2v15.8h-4.8V82.6c0-4.3-1.6-7.8-6.1-7.8-3.2 0-5.6 2.2-6.5 4.9-.2.6-.3 1.4-.3 2.2v15.9h-4.8V78.6zM84 61.6c2.9-.4 6.3-.8 10.1-.8 6.8 0 11.7 1.6 14.9 4.6 3.3 3 5.2 7.3 5.2 13.2 0 6-1.9 10.9-5.3 14.3-3.4 3.4-9.1 5.3-16.3 5.3-3.4 0-6.2-.2-8.6-.4V61.6zm4.8 32.5c1.2.2 3 .3 4.8.3 10.2 0 15.7-5.7 15.7-15.6.1-8.7-4.9-14.2-14.9-14.2-2.5 0-4.3.2-5.6.5v29zM132.1 97.8l-.4-3.3h-.2a9.79 9.79 0 01-8.1 3.9c-5.4 0-8.1-3.8-8.1-7.6 0-6.4 5.7-9.9 15.9-9.8v-.5c0-2.2-.6-6.1-6-6.1-2.5 0-5 .8-6.9 2l-1.1-3.2c2.2-1.4 5.4-2.3 8.7-2.3 8.1 0 10.1 5.5 10.1 10.8v9.9c0 2.3.1 4.5.4 6.3h-4.3zm-.7-13.4c-5.3-.1-11.2.8-11.2 5.9 0 3.1 2.1 4.6 4.5 4.6 3.4 0 5.6-2.2 6.4-4.4.2-.5.3-1 .3-1.5v-4.6zM146.6 63.9v7.6h6.9v3.7h-6.9v14.2c0 3.3.9 5.1 3.6 5.1 1.3 0 2.2-.2 2.8-.3l.2 3.6c-.9.4-2.4.7-4.3.7-2.2 0-4-.7-5.2-2-1.4-1.4-1.9-3.8-1.9-6.9V75.1h-4.1v-3.7h4.1v-6.3l4.8-1.2zM171.4 97.8l-.4-3.3h-.2a9.79 9.79 0 01-8.1 3.9c-5.4 0-8.1-3.8-8.1-7.6 0-6.4 5.7-9.9 15.9-9.8v-.5c0-2.2-.6-6.1-6-6.1-2.5 0-5 .8-6.9 2l-1.1-3.2c2.2-1.4 5.4-2.3 8.7-2.3 8.1 0 10.1 5.5 10.1 10.8v9.9c0 2.3.1 4.5.4 6.3h-4.3zm-.7-13.4c-5.3-.1-11.2.8-11.2 5.9 0 3.1 2.1 4.6 4.5 4.6 3.4 0 5.6-2.2 6.4-4.4.2-.5.3-1 .3-1.5v-4.6z"/></g></g></a></g><a href="https://ourworldindata.org/grapher/ozone-depleting-substance-emissions" target="_blank"><text font-size="25.2" x="15" y="35.2" fill="#555"><tspan x="15" y="35.16">Ozone-depleting substance emissions</tspan></text></a><text font-size="14.4" x="15" y="53.7" fill="#666"><tspan x="15" y="53.72">Global emissions of ozone-depleting substances, measured in tonnes of chlorofluorocarbon-11 equivalents</tspan><tspan x="15" y="69.56">(CFC₁₁-equivalents) per year. Emissions of ozone-depleting substances are weighted by their potential to destroy</tspan><tspan x="15" y="85.4">ozone (their ozone-depleting potential). Total emissions include emissions from natural and man-made sources.</tspan></text></g><g class="LineChart"><defs><clipPath id="a"><path d="M136.52 0h830v897.8h-830z"/></clipPath></defs><g class="AxisBoxView"><g class="HorizontalAxis" fill="#666" text-anchor="middle" font-size="16.2"><text x="146.5" y="556.5">1961</text><text x="239.2" y="556.5">1970</text><text x="342.3" y="556.5">1980</text><text x="445.3" y="556.5">1990</text><text x="548.3" y="556.5">2000</text><text x="692.5" y="556.5">2014</text></g><g class="VerticalAxis" fill="#666" dominant-baseline="middle" text-anchor="end" font-size="16.2"><text x="141.52" y="535.3">0 tonnes</text><text x="141.52" y="476.7">200,000 tonnes</text><text x="141.52" y="418.1">400,000 tonnes</text><text x="141.52" y="359.5">600,000 tonnes</text><text x="141.52" y="300.9">800,000 tonnes</text><text x="141.52" y="242.4">1 million tonnes</text><text x="141.52" y="183.8">1.2 million tonnes</text><text x="141.52" y="125.2">1.4 million tonnes</text></g><g class="AxisGridLines"><path stroke="#ccc" d="M146.52 535.3h546.02"/><path stroke="#ddd" stroke-dasharray="3,2" d="M146.52 476.7h546.02M146.52 418.1h546.02M146.52 359.5h546.02M146.52 300.9h546.02M146.52 242.4h546.02M146.52 183.8h546.02M146.52 125.2h546.02"/></g></g><g clip-path="url(#a)"><g class="HeightedLegend clickable"><g class="legendMark"><text font-size="13.5" x="697.5" y="445.7" fill="#ca2628"><tspan x="697.54" y="445.65">Total emissions</tspan></text></g><g class="legendMark"><text font-size="13.5" x="697.5" y="491.1" fill="#3360a9"><tspan x="697.54" y="491.05">Natural emissions</tspan></text></g></g><g class="Lines"><g class="key-Natural-emissions_0"><path stroke="#3360a9" stroke-linecap="round" d="M147 487h546" fill="none" stroke-width="1.5"/><g fill="#3360a9"><circle cx="147" cy="487" r="2"/><circle cx="157" cy="487" r="2"/><circle cx="167" cy="487" r="2"/><circle cx="177" cy="487" r="2"/><circle cx="188" cy="487" r="2"/><circle cx="198" cy="487" r="2"/><circle cx="208" cy="487" r="2"/><circle cx="219" cy="487" r="2"/><circle cx="229" cy="487" r="2"/><circle cx="239" cy="487" r="2"/><circle cx="250" cy="487" r="2"/><circle cx="260" cy="487" r="2"/><circle cx="270" cy="487" r="2"/><circle cx="281" cy="487" r="2"/><circle cx="291" cy="487" r="2"/><circle cx="301" cy="487" r="2"/><circle cx="311" cy="487" r="2"/><circle cx="322" cy="487" r="2"/><circle cx="332" cy="487" r="2"/><circle cx="342" cy="487" r="2"/><circle cx="353" cy="487" r="2"/><circle cx="363" cy="487" r="2"/><circle cx="373" cy="487" r="2"/><circle cx="384" cy="487" r="2"/><circle cx="394" cy="487" r="2"/><circle cx="404" cy="487" r="2"/><circle cx="414" cy="487" r="2"/><circle cx="425" cy="487" r="2"/><circle cx="435" cy="487" r="2"/><circle cx="445" cy="487" r="2"/><circle cx="456" cy="487" r="2"/><circle cx="466" cy="487" r="2"/><circle cx="476" cy="487" r="2"/><circle cx="487" cy="487" r="2"/><circle cx="497" cy="487" r="2"/><circle cx="507" cy="487" r="2"/><circle cx="517" cy="487" r="2"/><circle cx="528" cy="487" r="2"/><circle cx="538" cy="487" r="2"/><circle cx="548" cy="487" r="2"/><circle cx="559" cy="487" r="2"/><circle cx="569" cy="487" r="2"/><circle cx="579" cy="487" r="2"/><circle cx="590" cy="487" r="2"/><circle cx="600" cy="487" r="2"/><circle cx="610" cy="487" r="2"/><circle cx="620" cy="487" r="2"/><circle cx="631" cy="487" r="2"/><circle cx="641" cy="487" r="2"/><circle cx="651" cy="487" r="2"/><circle cx="662" cy="487" r="2"/><circle cx="672" cy="487" r="2"/><circle cx="682" cy="487" r="2"/><circle cx="693" cy="487" r="2"/></g></g><g class="key-Total-emissions_0"><path stroke="#ca2628" stroke-linecap="round" d="M147 424l10-6 10-12 10-11 11-9 10-9 10-12 11-14 10-9 10-18 11-14 10-21 10-20 11-21 10-17 10-3 10-6h11l10-12 10 9 11 12 10-18 10 3 11-18 10-8 10-30 10-23 11-29 10 14 10 27 11 38 10 32 10 35 11 41 10 18 10 17 10 18 11 12 10 3 10 8 11 9 10 12 10 3 11 3 10 6 10 5 10 6 11 3 10 3 10 3 11 3 10 6 10 3 11 6" fill="none" stroke-width="1.5"/><g fill="#ca2628"><circle cx="147" cy="424" r="2"/><circle cx="157" cy="418" r="2"/><circle cx="167" cy="406" r="2"/><circle cx="177" cy="395" r="2"/><circle cx="188" cy="386" r="2"/><circle cx="198" cy="377" r="2"/><circle cx="208" cy="365" r="2"/><circle cx="219" cy="351" r="2"/><circle cx="229" cy="342" r="2"/><circle cx="239" cy="324" r="2"/><circle cx="250" cy="310" r="2"/><circle cx="260" cy="289" r="2"/><circle cx="270" cy="269" r="2"/><circle cx="281" cy="248" r="2"/><circle cx="291" cy="231" r="2"/><circle cx="301" cy="228" r="2"/><circle cx="311" cy="222" r="2"/><circle cx="322" cy="222" r="2"/><circle cx="332" cy="210" r="2"/><circle cx="342" cy="219" r="2"/><circle cx="353" cy="231" r="2"/><circle cx="363" cy="213" r="2"/><circle cx="373" cy="216" r="2"/><circle cx="384" cy="198" r="2"/><circle cx="394" cy="190" r="2"/><circle cx="404" cy="160" r="2"/><circle cx="414" cy="137" r="2"/><circle cx="425" cy="108" r="2"/><circle cx="435" cy="122" r="2"/><circle cx="445" cy="149" r="2"/><circle cx="456" cy="187" r="2"/><circle cx="466" cy="219" r="2"/><circle cx="476" cy="254" r="2"/><circle cx="487" cy="295" r="2"/><circle cx="497" cy="313" r="2"/><circle cx="507" cy="330" r="2"/><circle cx="517" cy="348" r="2"/><circle cx="528" cy="360" r="2"/><circle cx="538" cy="363" r="2"/><circle cx="548" cy="371" r="2"/><circle cx="559" cy="380" r="2"/><circle cx="569" cy="392" r="2"/><circle cx="579" cy="395" r="2"/><circle cx="590" cy="398" r="2"/><circle cx="600" cy="404" r="2"/><circle cx="610" cy="409" r="2"/><circle cx="620" cy="415" r="2"/><circle cx="631" cy="418" r="2"/><circle cx="641" cy="421" r="2"/><circle cx="651" cy="424" r="2"/><circle cx="662" cy="427" r="2"/><circle cx="672" cy="433" r="2"/><circle cx="682" cy="436" r="2"/><circle cx="693" cy="442" r="2"/></g></g></g></g></g><g class="SourcesFooter" fill="#777"><g class="clickable" fill="#777"><text font-size="12.6" x="15" y="581.6"><tspan x="15" y="581.58">Source: Hegglin et al. (2014). Twenty questions and answers about the ozone layer: 2014 update.</tspan></text></g><text font-size="12.6" x="775.4" y="581.6"><tspan x="775.4" y="581.58"><a class="cclogo" href="http://creativecommons.org/licenses/by-sa/4.0/deed.en_US" target="_blank" fill="#777">CC BY-SA</a></tspan></text></g></g></svg>

<svg xmlns="http://www.w3.org/2000/svg" version="1.1" style="font-family: 'Helvetica Neue', Helvetica, Arial, sans-serif; font-size: 18px; background-color: white; text-rendering: optimizeLegibility; -webkit-font-smoothing: antialiased;" width="850" height="600"><g class="ChartTab"><g class="HeaderView"><g opacity="0.8" transform="translate(778, 15) scale(0.27)"><a xmlns:xlink="http://www.w3.org/1999/xlink" xlink:href="https://ourworldindata.org" target="_blank"><g><rect x="0" y="0" fill="#1B2543" width="211.2" height="130.1"/><rect x="0" y="112.2" fill="#E63912" width="211.2" height="17.9"/><g><rect x="1.2" y="12.3" fill="none" width="210.2" height="99.2"/><path fill="#FFFFFF" d="M37.8,32.2c0,12.7-7.7,19.4-17.1,19.4c-9.7,0-16.6-7.5-16.6-18.7c0-11.7,7.3-19.3,17.1-19.3 C31.3,13.7,37.8,21.3,37.8,32.2z M9.2,32.8c0,7.9,4.3,14.9,11.8,14.9c7.5,0,11.8-6.9,11.8-15.3c0-7.3-3.8-14.9-11.8-14.9 C13.1,17.5,9.2,24.8,9.2,32.8z"/><path fill="#FFFFFF" d="M62.7,43.8c0,2.7,0.1,5.1,0.2,7.2h-4.3l-0.3-4.3h-0.1c-1.3,2.1-4,4.9-8.8,4.9c-4.2,0-9.1-2.3-9.1-11.6 V24.6h4.8v14.6c0,5,1.5,8.4,5.9,8.4c3.2,0,5.5-2.2,6.3-4.4c0.3-0.7,0.4-1.6,0.4-2.5V24.6h4.8V43.8z"/><path fill="#FFFFFF" d="M67.3,32.8c0-3.1-0.1-5.8-0.2-8.2h4.2l0.2,5.2h0.2c1.2-3.5,4.1-5.8,7.3-5.8c0.5,0,0.9,0.1,1.4,0.2v4.5 c-0.5-0.1-1-0.2-1.6-0.2c-3.4,0-5.8,2.6-6.5,6.2c-0.1,0.7-0.2,1.4-0.2,2.2V51h-4.8V32.8z"/><path fill="#FFFFFF" d="M95.4,51l-9.4-36.8h5l4.4,18.6c1.1,4.6,2.1,9.2,2.7,12.7h0.1c0.6-3.7,1.8-8,3-12.8l4.9-18.5h5l4.5,18.7 c1,4.4,2,8.7,2.6,12.6h0.1c0.8-4,1.8-8.1,3-12.7l4.9-18.5h4.9L120.6,51h-5L111,31.9c-1.1-4.7-1.9-8.3-2.4-12h-0.1 c-0.7,3.7-1.5,7.3-2.8,12L100.4,51H95.4z"/><path fill="#FFFFFF" d="M154.9,37.6c0,9.8-6.8,14-13.2,14c-7.2,0-12.7-5.2-12.7-13.6c0-8.8,5.8-14,13.1-14 C149.8,24,154.9,29.5,154.9,37.6z M133.9,37.9c0,5.8,3.3,10.1,8,10.1c4.6,0,8-4.3,8-10.3c0-4.5-2.2-10.1-7.9-10.1 C136.3,27.6,133.9,32.8,133.9,37.9z"/><path fill="#FFFFFF" d="M158.2,32.8c0-3.1-0.1-5.8-0.2-8.2h4.2l0.2,5.2h0.2c1.2-3.5,4.1-5.8,7.3-5.8c0.5,0,0.9,0.1,1.4,0.2v4.5 c-0.5-0.1-1-0.2-1.6-0.2c-3.4,0-5.8,2.6-6.5,6.2c-0.1,0.7-0.2,1.4-0.2,2.2V51h-4.8V32.8z"/><path fill="#FFFFFF" d="M173.5,12.3h4.8V51h-4.8V12.3z"/><path fill="#FFFFFF" d="M206.5,12.3v31.9c0,2.3,0.1,5,0.2,6.8h-4.3l-0.2-4.6H202c-1.5,2.9-4.7,5.2-9,5.2 c-6.4,0-11.3-5.4-11.3-13.4c-0.1-8.8,5.4-14.2,11.9-14.2c4,0,6.8,1.9,8,4h0.1V12.3H206.5z M201.7,35.4c0-0.6-0.1-1.4-0.2-2 c-0.7-3.1-3.3-5.6-6.9-5.6c-5,0-7.9,4.4-7.9,10.2c0,5.3,2.6,9.8,7.8,9.8c3.2,0,6.2-2.1,7.1-5.7c0.2-0.7,0.2-1.3,0.2-2.1V35.4z"/><path fill="#FFFFFF" d="M42.8,64c0.1,1.6-1.1,2.9-3.1,2.9c-1.7,0-2.9-1.3-2.9-2.9c0-1.7,1.3-3,3-3C41.7,61,42.8,62.3,42.8,64z M37.4,97.8V71.4h4.8v26.4H37.4z"/><path fill="#FFFFFF" d="M47.5,78.6c0-2.7-0.1-5-0.2-7.1h4.3l0.3,4.4h0.1c1.3-2.5,4.4-5,8.8-5c3.7,0,9.4,2.2,9.4,11.2v15.8h-4.8 V82.6c0-4.3-1.6-7.8-6.1-7.8c-3.2,0-5.6,2.2-6.5,4.9c-0.2,0.6-0.3,1.4-0.3,2.2v15.9h-4.8V78.6z"/><path fill="#FFFFFF" d="M84,61.6c2.9-0.4,6.3-0.8,10.1-0.8c6.8,0,11.7,1.6,14.9,4.6c3.3,3,5.2,7.3,5.2,13.2c0,6-1.9,10.9-5.3,14.3 c-3.4,3.4-9.1,5.3-16.3,5.3c-3.4,0-6.2-0.2-8.6-0.4V61.6z M88.8,94.1c1.2,0.2,3,0.3,4.8,0.3c10.2,0,15.7-5.7,15.7-15.6 c0.1-8.7-4.9-14.2-14.9-14.2c-2.5,0-4.3,0.2-5.6,0.5V94.1z"/><path fill="#FFFFFF" d="M132.1,97.8l-0.4-3.3h-0.2c-1.5,2.1-4.3,3.9-8.1,3.9c-5.4,0-8.1-3.8-8.1-7.6c0-6.4,5.7-9.9,15.9-9.8v-0.5 c0-2.2-0.6-6.1-6-6.1c-2.5,0-5,0.8-6.9,2l-1.1-3.2c2.2-1.4,5.4-2.3,8.7-2.3c8.1,0,10.1,5.5,10.1,10.8v9.9c0,2.3,0.1,4.5,0.4,6.3 H132.1z M131.4,84.4c-5.3-0.1-11.2,0.8-11.2,5.9c0,3.1,2.1,4.6,4.5,4.6c3.4,0,5.6-2.2,6.4-4.4c0.2-0.5,0.3-1,0.3-1.5V84.4z"/><path fill="#FFFFFF" d="M146.6,63.9v7.6h6.9v3.7h-6.9v14.2c0,3.3,0.9,5.1,3.6,5.1c1.3,0,2.2-0.2,2.8-0.3l0.2,3.6 c-0.9,0.4-2.4,0.7-4.3,0.7c-2.2,0-4-0.7-5.2-2c-1.4-1.4-1.9-3.8-1.9-6.9V75.1h-4.1v-3.7h4.1v-6.3L146.6,63.9z"/><path fill="#FFFFFF" d="M171.4,97.8l-0.4-3.3h-0.2c-1.5,2.1-4.3,3.9-8.1,3.9c-5.4,0-8.1-3.8-8.1-7.6c0-6.4,5.7-9.9,15.9-9.8v-0.5 c0-2.2-0.6-6.1-6-6.1c-2.5,0-5,0.8-6.9,2l-1.1-3.2c2.2-1.4,5.4-2.3,8.7-2.3c8.1,0,10.1,5.5,10.1,10.8v9.9c0,2.3,0.1,4.5,0.4,6.3 H171.4z M170.7,84.4c-5.3-0.1-11.2,0.8-11.2,5.9c0,3.1,2.1,4.6,4.5,4.6c3.4,0,5.6-2.2,6.4-4.4c0.2-0.5,0.3-1,0.3-1.5V84.4z"/></g></g></a></g><a href="https://ourworldindata.org/grapher/ozone-depleting-substance-emissions" target="_blank"><text font-size="25.20" x="15.0" y="35.2" fill="#555"><tspan x="15" y="35.160000000000004">Ozone-depleting substance emissions</tspan></text></a><text font-size="14.40" x="15.0" y="53.7" fill="#666"><tspan x="15" y="53.72">Global emissions of ozone-depleting substances, measured in tonnes of chlorofluorocarbon-11 equivalents</tspan><tspan x="15" y="69.56">(CFC₁₁-equivalents) per year. Emissions of ozone-depleting substances are weighted by their potential to destroy</tspan><tspan x="15" y="85.4">ozone (their ozone-depleting potential). Total emissions include emissions from natural and man-made sources.
</tspan></text></g><g class="LineChart"><defs><clipPath id="boundsClip-63"><rect x="136.522" y="0" width="830" height="897.8"></rect></clipPath></defs><g class="AxisBoxView"><g class="HorizontalAxis"><text x="146.5" y="556.5" fill="#666" text-anchor="middle" font-size="16.2">1961</text><text x="239.2" y="556.5" fill="#666" text-anchor="middle" font-size="16.2">1970</text><text x="342.3" y="556.5" fill="#666" text-anchor="middle" font-size="16.2">1980</text><text x="445.3" y="556.5" fill="#666" text-anchor="middle" font-size="16.2">1990</text><text x="548.3" y="556.5" fill="#666" text-anchor="middle" font-size="16.2">2000</text><text x="692.5" y="556.5" fill="#666" text-anchor="middle" font-size="16.2">2014</text></g><g class="VerticalAxis"><text x="141.52" y="535.3" fill="#666" dominant-baseline="middle" text-anchor="end" font-size="16.2">0 tonnes</text><text x="141.52" y="476.7" fill="#666" dominant-baseline="middle" text-anchor="end" font-size="16.2">200,000 tonnes</text><text x="141.52" y="418.1" fill="#666" dominant-baseline="middle" text-anchor="end" font-size="16.2">400,000 tonnes</text><text x="141.52" y="359.5" fill="#666" dominant-baseline="middle" text-anchor="end" font-size="16.2">600,000 tonnes</text><text x="141.52" y="300.9" fill="#666" dominant-baseline="middle" text-anchor="end" font-size="16.2">800,000 tonnes</text><text x="141.52" y="242.4" fill="#666" dominant-baseline="middle" text-anchor="end" font-size="16.2">1 million tonnes</text><text x="141.52" y="183.8" fill="#666" dominant-baseline="middle" text-anchor="end" font-size="16.2">1.2 million tonnes</text><text x="141.52" y="125.2" fill="#666" dominant-baseline="middle" text-anchor="end" font-size="16.2">1.4 million tonnes</text></g><g class="AxisGridLines"><line x1="146.52" y1="535.3" x2="692.54" y2="535.3" stroke="#ccc"></line><line x1="146.52" y1="476.7" x2="692.54" y2="476.7" stroke="#ddd" stroke-dasharray="3,2"></line><line x1="146.52" y1="418.1" x2="692.54" y2="418.1" stroke="#ddd" stroke-dasharray="3,2"></line><line x1="146.52" y1="359.5" x2="692.54" y2="359.5" stroke="#ddd" stroke-dasharray="3,2"></line><line x1="146.52" y1="300.9" x2="692.54" y2="300.9" stroke="#ddd" stroke-dasharray="3,2"></line><line x1="146.52" y1="242.4" x2="692.54" y2="242.4" stroke="#ddd" stroke-dasharray="3,2"></line><line x1="146.52" y1="183.8" x2="692.54" y2="183.8" stroke="#ddd" stroke-dasharray="3,2"></line><line x1="146.52" y1="125.2" x2="692.54" y2="125.2" stroke="#ddd" stroke-dasharray="3,2"></line></g></g><g clip-path="url(#boundsClip-63)"><g class="HeightedLegend clickable"><g class="legendMark"><rect x="692.54" y="434.85" width="128.96" height="13.5" fill="#fff" opacity="0"></rect><text font-size="13.50" x="697.5" y="445.7" fill="#ca2628"><tspan x="697.54" y="445.65000000000003">Total emissions</tspan></text></g><g class="legendMark"><rect x="692.54" y="480.25" width="142.46" height="13.5" fill="#fff" opacity="0"></rect><text font-size="13.50" x="697.5" y="491.1" fill="#3360a9"><tspan x="697.54" y="491.05">Natural emissions</tspan></text></g></g><g class="Lines"><rect x="147" y="108" width="546" height="428" fill="rgba(255,255,255,0)" opacity="0"></rect><g class="key-Natural-emissions_0"><path stroke="#3360a9" stroke-linecap="round" d="M147 487L157 487L167 487L177 487L188 487L198 487L208 487L219 487L229 487L239 487L250 487L260 487L270 487L281 487L291 487L301 487L311 487L322 487L332 487L342 487L353 487L363 487L373 487L384 487L394 487L404 487L414 487L425 487L435 487L445 487L456 487L466 487L476 487L487 487L497 487L507 487L517 487L528 487L538 487L548 487L559 487L569 487L579 487L590 487L600 487L610 487L620 487L631 487L641 487L651 487L662 487L672 487L682 487L693 487" fill="none" stroke-width="1.5"></path><g fill="#3360a9"><circle cx="147" cy="487" r="2"></circle><circle cx="157" cy="487" r="2"></circle><circle cx="167" cy="487" r="2"></circle><circle cx="177" cy="487" r="2"></circle><circle cx="188" cy="487" r="2"></circle><circle cx="198" cy="487" r="2"></circle><circle cx="208" cy="487" r="2"></circle><circle cx="219" cy="487" r="2"></circle><circle cx="229" cy="487" r="2"></circle><circle cx="239" cy="487" r="2"></circle><circle cx="250" cy="487" r="2"></circle><circle cx="260" cy="487" r="2"></circle><circle cx="270" cy="487" r="2"></circle><circle cx="281" cy="487" r="2"></circle><circle cx="291" cy="487" r="2"></circle><circle cx="301" cy="487" r="2"></circle><circle cx="311" cy="487" r="2"></circle><circle cx="322" cy="487" r="2"></circle><circle cx="332" cy="487" r="2"></circle><circle cx="342" cy="487" r="2"></circle><circle cx="353" cy="487" r="2"></circle><circle cx="363" cy="487" r="2"></circle><circle cx="373" cy="487" r="2"></circle><circle cx="384" cy="487" r="2"></circle><circle cx="394" cy="487" r="2"></circle><circle cx="404" cy="487" r="2"></circle><circle cx="414" cy="487" r="2"></circle><circle cx="425" cy="487" r="2"></circle><circle cx="435" cy="487" r="2"></circle><circle cx="445" cy="487" r="2"></circle><circle cx="456" cy="487" r="2"></circle><circle cx="466" cy="487" r="2"></circle><circle cx="476" cy="487" r="2"></circle><circle cx="487" cy="487" r="2"></circle><circle cx="497" cy="487" r="2"></circle><circle cx="507" cy="487" r="2"></circle><circle cx="517" cy="487" r="2"></circle><circle cx="528" cy="487" r="2"></circle><circle cx="538" cy="487" r="2"></circle><circle cx="548" cy="487" r="2"></circle><circle cx="559" cy="487" r="2"></circle><circle cx="569" cy="487" r="2"></circle><circle cx="579" cy="487" r="2"></circle><circle cx="590" cy="487" r="2"></circle><circle cx="600" cy="487" r="2"></circle><circle cx="610" cy="487" r="2"></circle><circle cx="620" cy="487" r="2"></circle><circle cx="631" cy="487" r="2"></circle><circle cx="641" cy="487" r="2"></circle><circle cx="651" cy="487" r="2"></circle><circle cx="662" cy="487" r="2"></circle><circle cx="672" cy="487" r="2"></circle><circle cx="682" cy="487" r="2"></circle><circle cx="693" cy="487" r="2"></circle></g></g><g class="key-Total-emissions_0"><path stroke="#ca2628" stroke-linecap="round" d="M147 424L157 418L167 406L177 395L188 386L198 377L208 365L219 351L229 342L239 324L250 310L260 289L270 269L281 248L291 231L301 228L311 222L322 222L332 210L342 219L353 231L363 213L373 216L384 198L394 190L404 160L414 137L425 108L435 122L445 149L456 187L466 219L476 254L487 295L497 313L507 330L517 348L528 360L538 363L548 371L559 380L569 392L579 395L590 398L600 404L610 409L620 415L631 418L641 421L651 424L662 427L672 433L682 436L693 442" fill="none" stroke-width="1.5"></path><g fill="#ca2628"><circle cx="147" cy="424" r="2"></circle><circle cx="157" cy="418" r="2"></circle><circle cx="167" cy="406" r="2"></circle><circle cx="177" cy="395" r="2"></circle><circle cx="188" cy="386" r="2"></circle><circle cx="198" cy="377" r="2"></circle><circle cx="208" cy="365" r="2"></circle><circle cx="219" cy="351" r="2"></circle><circle cx="229" cy="342" r="2"></circle><circle cx="239" cy="324" r="2"></circle><circle cx="250" cy="310" r="2"></circle><circle cx="260" cy="289" r="2"></circle><circle cx="270" cy="269" r="2"></circle><circle cx="281" cy="248" r="2"></circle><circle cx="291" cy="231" r="2"></circle><circle cx="301" cy="228" r="2"></circle><circle cx="311" cy="222" r="2"></circle><circle cx="322" cy="222" r="2"></circle><circle cx="332" cy="210" r="2"></circle><circle cx="342" cy="219" r="2"></circle><circle cx="353" cy="231" r="2"></circle><circle cx="363" cy="213" r="2"></circle><circle cx="373" cy="216" r="2"></circle><circle cx="384" cy="198" r="2"></circle><circle cx="394" cy="190" r="2"></circle><circle cx="404" cy="160" r="2"></circle><circle cx="414" cy="137" r="2"></circle><circle cx="425" cy="108" r="2"></circle><circle cx="435" cy="122" r="2"></circle><circle cx="445" cy="149" r="2"></circle><circle cx="456" cy="187" r="2"></circle><circle cx="466" cy="219" r="2"></circle><circle cx="476" cy="254" r="2"></circle><circle cx="487" cy="295" r="2"></circle><circle cx="497" cy="313" r="2"></circle><circle cx="507" cy="330" r="2"></circle><circle cx="517" cy="348" r="2"></circle><circle cx="528" cy="360" r="2"></circle><circle cx="538" cy="363" r="2"></circle><circle cx="548" cy="371" r="2"></circle><circle cx="559" cy="380" r="2"></circle><circle cx="569" cy="392" r="2"></circle><circle cx="579" cy="395" r="2"></circle><circle cx="590" cy="398" r="2"></circle><circle cx="600" cy="404" r="2"></circle><circle cx="610" cy="409" r="2"></circle><circle cx="620" cy="415" r="2"></circle><circle cx="631" cy="418" r="2"></circle><circle cx="641" cy="421" r="2"></circle><circle cx="651" cy="424" r="2"></circle><circle cx="662" cy="427" r="2"></circle><circle cx="672" cy="433" r="2"></circle><circle cx="682" cy="436" r="2"></circle><circle cx="693" cy="442" r="2"></circle></g></g></g></g></g><g style="fill: #777;" class="SourcesFooter"><g style="fill: #777;" class="clickable"><text font-size="12.60" x="15.0" y="581.6"><tspan x="15" y="581.58">Source: Hegglin et al. (2014). Twenty questions and answers about the ozone layer: 2014 update.</tspan></text></g><text font-size="12.60" x="775.4" y="581.6"><tspan x="775.402" y="581.58"><a style="fill: #777;" class="cclogo" href="http://creativecommons.org/licenses/by-sa/4.0/deed.en_US" target="_blank">CC BY-SA</a></tspan></text></g></g></svg>
